X: 34288
T: Repeal The Union
R: jig
M: 6/8
K: Gmajor
{F}~G3 GBd|{g}edB d2 g|{c'}bge {g}edB|dBA {c}B2 A|
{F}G3 G 3(B/c/d)|{g}edB d2 g|{b}age deg|aba ~gdB|
{F}~G3 GBd|{g}edB d2 g|{c'}bge {g}edB|dBA cBA|
{F}G3 GBd|{g}edB d2 g|{b}age deg|aba ~g2 a/b/||
|:c'2 b {g}a2 b|{f}g2 b {d}e2 g|dBd {a}g2 e|dBG ABA|
{F}G3 GBd|{g}edB d2 g|{b}age deg|1 aba {f}~g2 a/b/:|2 aba {f}~g2 d||
|:{F}~G3 GBc|ded {c}~B2 d|cBc {B}~A2 c|BAB {B}~G2 D|
{F}G3 GBc|ded {c}~B2 d|cAF DEF|{A}~G2 D {c}~B2 A:|

